X: 43529
T: Yorkshire, The
R: waltz
M: 3/4
K: Eminor
|E-F||"Emin"G3AG2|"Dmaj"F3ED2|"Cmaj"E4D2|"B7"B,4F2|
"Emin"G3AG2|"Dmaj"F3ED2|"Emin"E6-|E4F2|
"Emin"G3AG2|e4e2|"Dmaj"d3AF2|D4E-F|
"Cmaj"G3AG2|"B7"F3ED2|"Emin"E6-|E6||
"Gmaj"d3ed2|"Cmaj"c3BA2|"Gmaj"G4F-E|"Dmaj"D6|
"Gmaj"d3ed2|B3(c^cd)|"Cmaj"e6|.g2z2e2|
"Gmaj"d3ed2|"Cmaj"c3BA2|"Gmaj"G4F-E|"Dmaj"D4E-F|
"Cmaj"G3AG2|"Dmaj"F3ED2|"Emin"E6-|E4||

